Numix-GalliumOS/16/status/ubuntuone-client-idle.svg

<?xml version="1.0" encoding="UTF-8" standalone="no"?>
<svg
   xmlns:dc="http://purl.org/dc/elements/1.1/"
   xmlns:cc="http://creativecommons.org/ns#"
   xmlns:rdf="http://www.w3.org/1999/02/22-rdf-syntax-ns#"
   xmlns:svg="http://www.w3.org/2000/svg"
   xmlns="http://www.w3.org/2000/svg"
   xmlns:sodipodi="http://sodipodi.sourceforge.net/DTD/sodipodi-0.dtd"
   xmlns:inkscape="http://www.inkscape.org/namespaces/inkscape"
   width="16"
   height="16"
   viewBox="0 0 16 16"
   id="svg3037"
   version="1.1"
   inkscape:version="0.91 r"
   sodipodi:docname="ubuntuone-client-idle.svg">
  <metadata
     id="metadata3047">
    <rdf:RDF>
      <cc:Work
         rdf:about="">
        <dc:format>image/svg+xml</dc:format>
        <dc:type
           rdf:resource="http://purl.org/dc/dcmitype/StillImage" />
      </cc:Work>
    </rdf:RDF>
  </metadata>
  <defs
     id="defs3045" />
  <sodipodi:namedview
     pagecolor="#ffffff"
     bordercolor="#666666"
     borderopacity="1"
     objecttolerance="10"
     gridtolerance="10"
     guidetolerance="10"
     inkscape:pageopacity="0"
     inkscape:pageshadow="2"
     inkscape:window-width="1280"
     inkscape:window-height="998"
     id="namedview3043"
     showgrid="false"
     inkscape:zoom="29.5"
     inkscape:cx="9.7287842"
     inkscape:cy="6.7239807"
     inkscape:window-x="0"
     inkscape:window-y="0"
     inkscape:window-maximized="1"
     inkscape:current-layer="svg3037" />
  <path
     style="fill:#ececec;fill-opacity:1"
     d="M 8 3.910156 C 9.671875 3.910156 11.097656 4.925781 11.734375 6.363281 C 13.289062 6.390625 14.546875 7.664062 14.546875 9.226562 C 14.546875 10.808594 13.261719 12.089844 11.683594 12.089844 L 3.5 12.089844 C 2.371094 12.089844 1.453125 11.175781 1.453125 10.046875 C 1.453125 8.914062 2.371094 8 3.5 8 C 3.640625 8 3.777344 8.023438 3.910156 8.050781 C 3.910156 8.035156 3.910156 8.019531 3.910156 8 C 3.910156 5.742188 5.742188 3.910156 8 3.910156 Z "
     id="path3041" />
</svg>

<svg xmlns="http://www.w3.org/2000/svg" viewBox="0 0 16 16">
 <path d="m 8 3.91 c 1.672 0 3.098 1.016 3.734 2.453 c 1.555 0.027 2.813 1.301 2.813 2.863 c 0 1.582 -1.285 2.863 -2.863 2.863 l -8.184 0 c -1.129 0 -2.047 -0.914 -2.047 -2.043 c 0 -1.133 0.918 -2.047 2.047 -2.047 c 0.141 0 0.277 0.023 0.41 0.051 c 0 -0.016 0 -0.031 0 -0.051 c 0 -2.258 1.832 -4.09 4.09 -4.09 Z" style="fill:#ececec;fill-opacity:1"/>
</svg>
